X: 488
T: Chashan qingge
%%abc-version 2.0
%%abcx-abcm2ps-target-version 5.9.1 (29 Sep 2008)
%%abc-creator hum2abc beta
%%abcx-conversion-date 2013/10/02 07:52:30
%%abc-edited-by Helmut Schaffrath
%%humdrum-veritas 22078943
%%humdrum-veritas-data 1528436983
%%continueall 1
%%barnumbers 0
L: 1/8
M: 2/4
K: C
c c G G [I:setbarnb 1]| 
A/ d/ c/ A/G2 | 
G c A F | 
D> FG2 | 
G A/ A/ c e | 
d e/ c/d2 | 
A G c e | 
d e A c | 
G4 |]  



